src/images/emblem.svg

<svg width="47px" height="49px" viewBox="0 0 47 49" version="1.1" xmlns="http://www.w3.org/2000/svg" xmlns:xlink="http://www.w3.org/1999/xlink">
    <!-- Generator: sketchtool 50.2 (55047) - http://www.bohemiancoding.com/sketch -->
    <title>89CF9F14-F7FF-4A27-9062-81775DA527E0</title>
    <desc>Created with sketchtool.</desc>
    <defs></defs>
    <g id="Page-1" stroke="none" stroke-width="1" fill="none" fill-rule="evenodd">
        <g id="Homepage" transform="translate(-141.000000, -4631.000000)" fill="#47B7E8">
            <g id="FOOTER" transform="translate(0.000000, 4534.000000)">
                <g id="logo" transform="translate(141.000000, 97.000000)">
                    <g id="Group-3">
                        <path d="M23.3729351,0.487972414 C10.4660754,0.487972414 -8.24561404e-05,11.2003862 -8.24561404e-05,24.4286966 C-8.24561404e-05,37.6561621 10.4660754,48.3837828 23.3729351,48.3837828 C36.2797947,48.3837828 46.7467772,37.6561621 46.7467772,24.4286966 C46.7467772,11.2003862 36.2797947,0.487972414 23.3729351,0.487972414 Z M36.7654614,36.6474379 C36.5708649,37.3866621 36.0019175,37.9543862 35.2820754,38.1537655 L19.7547596,42.4159207 C19.034093,42.6144552 18.2573561,42.4159207 17.7304614,41.8617138 L6.36223333,30.2115414 C5.83616316,29.6708517 5.62754912,28.890231 5.82214561,28.1374897 L9.98123333,12.2243172 C10.1750053,11.4850931 10.7439526,10.9021621 11.4646193,10.7036276 L26.9911105,6.44147241 C27.7117772,6.24293793 28.488514,6.45583448 29.0154088,6.99567931 L40.3836368,18.6458517 C40.909707,19.1856966 41.1183211,19.9815241 40.9245491,20.7207483 L36.7654614,36.6474379 Z" id="emblem"></path>
                    </g>
                </g>
            </g>
        </g>
    </g>
</svg>

<svg width="47" height="49" viewBox="0 0 47 49" xmlns="http://www.w3.org/2000/svg"><title>89CF9F14-F7FF-4A27-9062-81775DA527E0</title><path d="M23.373.488C10.466.488 0 11.2 0 24.428c0 13.228 10.466 23.956 23.373 23.956 12.907 0 23.374-10.728 23.374-23.955C46.747 11.2 36.28.488 23.373.488zm13.392 36.16a2.12 2.12 0 0 1-1.483 1.506l-15.527 4.262c-.72.198-1.498 0-2.025-.554L6.362 30.212a2.18 2.18 0 0 1-.54-2.075l4.16-15.913a2.135 2.135 0 0 1 1.483-1.52L26.99 6.44a2.067 2.067 0 0 1 2.024.555l11.369 11.65c.526.54.734 1.336.54 2.075l-4.159 15.926z" fill="#47B7E8" fill-rule="evenodd"/></svg>
